flaticon/constructions/plier-2.svg

<svg xmlns="http://www.w3.org/2000/svg" width="32" height="32" viewBox="0 0 24 24">
    <path d="M 16.5 5.921875 L 16.582031 5.761719 C 16.863281 5.121094 17.179688 4.398438 17.179688 3.441406 C 17.179688 1.640625 15.460938 0 13.582031 0 L 10.421875 0 C 8.542969 0 6.820312 1.640625 6.820312 3.441406 C 6.78125 4.398438 7.140625 5.121094 7.421875 5.761719 L 8.769531 8.460938 L 7.179688 23.558594 C 7.179688 23.679688 7.261719 23.800781 7.300781 23.878906 C 7.339844 23.960938 7.460938 24 7.582031 24 L 8.78125 24 C 8.980469 24 9.140625 23.839844 9.179688 23.679688 L 11.542969 8.800781 L 12.433594 8.800781 L 14.78125 23.679688 C 14.820312 23.839844 14.980469 24 15.179688 24 L 16.382812 24 C 16.5 24 16.582031 23.960938 16.660156 23.878906 C 16.742188 23.800781 16.78125 23.679688 16.78125 23.558594 L 15.199219 8.523438 Z M 11.179688 4.800781 L 10.421875 4.800781 C 9.863281 4.800781 9.222656 4.28125 9.222656 3.601562 C 9.222656 2.921875 9.902344 2.398438 10.820312 2.398438 C 10.941406 2.398438 11.0625 2.359375 11.101562 2.238281 L 11.992188 1.082031 L 12.863281 2.238281 C 12.941406 2.359375 13.0625 2.398438 13.179688 2.398438 C 14.101562 2.398438 14.78125 2.921875 14.78125 3.601562 C 14.78125 4.28125 14.140625 4.800781 13.582031 4.800781 Z M 8.179688 5.441406 C 7.902344 4.839844 7.621094 4.199219 7.621094 3.441406 C 7.621094 2.078125 8.980469 0.800781 10.421875 0.800781 L 11.222656 0.800781 L 10.621094 1.601562 C 9.339844 1.679688 8.421875 2.519531 8.421875 3.601562 C 8.421875 4.679688 9.339844 5.601562 10.421875 5.601562 L 10.445312 5.601562 L 9.210938 7.578125 L 8.261719 5.601562 Z M 11.179688 8 C 10.980469 8 10.820312 8.121094 10.78125 8.320312 L 8.421875 23.199219 L 8.023438 23.199219 L 9.578125 8.539062 L 10.808594 6.574219 L 11.421875 5.601562 L 13.582031 5.601562 C 14.660156 5.601562 15.582031 4.679688 15.582031 3.601562 C 15.582031 2.519531 14.660156 1.679688 13.382812 1.601562 L 12.78125 0.800781 L 13.582031 0.800781 C 15.023438 0.800781 16.382812 2.078125 16.421875 3.441406 C 16.421875 4.238281 16.140625 4.839844 15.863281 5.441406 L 14.582031 8 Z M 15.542969 23.199219 L 13.261719 8.800781 L 14.421875 8.800781 L 15.941406 23.199219 Z M 15.542969 23.199219"/>
    <path d="M 11.980469 6.398438 C 11.742188 6.398438 11.582031 6.558594 11.582031 6.800781 C 11.582031 7.039062 11.742188 7.199219 11.980469 7.199219 C 12.222656 7.199219 12.382812 7.039062 12.382812 6.800781 C 12.382812 6.558594 12.222656 6.398438 11.980469 6.398438 Z M 11.980469 6.398438"/>
</svg>

<svg xmlns="http://www.w3.org/2000/svg" width="32" height="32" viewBox="0 0 24 24">
    <path d="M16.5 5.922l.082-.16c.281-.64.598-1.364.598-2.32C17.18 1.64 15.46 0 13.582 0h-3.16C8.543 0 6.82 1.64 6.82 3.441c-.039.957.32 1.68.602 2.32l1.348 2.7-1.59 15.098c0 .12.082.242.12.32.04.082.16.121.282.121h1.2c.198 0 .359-.16.398-.32L11.543 8.8h.89l2.348 14.88c.04.16.2.32.399.32h1.203c.117 0 .199-.04.277-.121a.442.442 0 0 0 .121-.32L15.2 8.523zM11.18 4.8h-.758c-.559 0-1.2-.52-1.2-1.2 0-.68.68-1.203 1.598-1.203.121 0 .242-.039.282-.16l.89-1.156.871 1.156c.078.121.2.16.317.16.922 0 1.601.524 1.601 1.204 0 .68-.64 1.199-1.199 1.199zm-3 .64c-.278-.601-.559-1.242-.559-2 0-1.363 1.36-2.64 2.8-2.64h.802l-.602.8c-1.281.079-2.2.919-2.2 2 0 1.079.919 2 2 2h.024L9.211 7.579l-.95-1.976zm3 2.559c-.2 0-.36.121-.399.32L8.421 23.2h-.398L9.578 8.54l1.23-1.966.614-.972h2.16c1.078 0 2-.922 2-2 0-1.082-.922-1.922-2.2-2l-.6-.801h.8c1.441 0 2.8 1.277 2.84 2.64 0 .797-.281 1.399-.559 2L14.582 8zm4.363 15.2L13.262 8.8h1.16l1.52 14.4zm0 0"/>
    <path d="M11.98 6.398c-.238 0-.398.16-.398.403 0 .238.16.398.398.398.243 0 .403-.16.403-.398 0-.242-.16-.403-.403-.403zm0 0"/>
</svg>
